Icons/rename_me_tune_in_radio.svg

<svg viewBox="0 0 48 48"><defs><linearGradient id="linearGradient3764" x1="1" x2="47" gradientUnits="userSpaceOnUse" gradientTransform="translate(-48.000001,0.00221467)"><stop stop-color="#27a99b" stop-opacity="1"/><stop offset="1" stop-color="#2bb9aa" stop-opacity="1"/></linearGradient><clipPath id="clipPath-999799482"><g transform="translate(0,-1004.3622)"><rect rx="4" y="1005.36" x="1" height="46" width="46" fill="#1890d0"/></g></clipPath><clipPath id="clipPath-024507266"><g transform="translate(0,-1004.3622)"><rect rx="4" y="1005.36" x="1" height="46" width="46" fill="#1890d0"/></g></clipPath></defs><g><path d="m 1 43 l 0 0.25 c 0 2.216 1.784 4 4 4 l 38 0 c 2.216 0 4 -1.784 4 -4 l 0 -0.25 c 0 2.216 -1.784 4 -4 4 l -38 0 c -2.216 0 -4 -1.784 -4 -4 z m 0 0.5 l 0 0.5 c 0 2.216 1.784 4 4 4 l 38 0 c 2.216 0 4 -1.784 4 -4 l 0 -0.5 c 0 2.216 -1.784 4 -4 4 l -38 0 c -2.216 0 -4 -1.784 -4 -4 z" opacity="0.02"/><path d="m 1 43.25 l 0 0.25 c 0 2.216 1.784 4 4 4 l 38 0 c 2.216 0 4 -1.784 4 -4 l 0 -0.25 c 0 2.216 -1.784 4 -4 4 l -38 0 c -2.216 0 -4 -1.784 -4 -4 z" opacity="0.05"/><path d="m 1 43 l 0 0.25 c 0 2.216 1.784 4 4 4 l 38 0 c 2.216 0 4 -1.784 4 -4 l 0 -0.25 c 0 2.216 -1.784 4 -4 4 l -38 0 c -2.216 0 -4 -1.784 -4 -4 z" opacity="0.1"/></g><g><rect width="46" height="46" x="-47" y="1" rx="4" transform="matrix(0,-1,1,0,0,0)" fill="url(#linearGradient3764)" fill-opacity="1"/></g><g><g clip-path="url(#clipPath-999799482)"><g opacity="0.1"><!-- color: #2bb9aa --><g><path d="m 28 14 c 0 2.211 -1.789 4 -4 4 c -2.211 0 -4 -1.789 -4 -4 c 0 -2.211 1.789 -4 4 -4 c 2.211 0 4 1.789 4 4 m 0 0" fill="#000"/><path d="m 20 30 l 8 0 c 0 6 -2 8 -8 8 m 0 -8" fill="#000"/><path d="m 40 20 c 0 7 -1 8 -8 8 c 0 -7 1 -8 8 -8 m 0 0" fill="#000"/><path d="m 8 20 l 19 0 c 1 0 3 2 3 3 l 0 5 l -19 0 c -1 0 -3 -2 -3 -3 m 0 -5" fill="#000"/></g></g></g></g><g><g clip-path="url(#clipPath-024507266)"><g transform="translate(0,-1)"><!-- color: #2bb9aa --><g><path d="m 28 14 c 0 2.211 -1.789 4 -4 4 c -2.211 0 -4 -1.789 -4 -4 c 0 -2.211 1.789 -4 4 -4 c 2.211 0 4 1.789 4 4 m 0 0" fill="#f9f9f9"/><path d="m 20 30 l 8 0 c 0 6 -2 8 -8 8 m 0 -8" fill="#f9f9f9"/><path d="m 40 20 c 0 7 -1 8 -8 8 c 0 -7 1 -8 8 -8 m 0 0" fill="#f9f9f9"/><path d="m 8 20 l 19 0 c 1 0 3 2 3 3 l 0 5 l -19 0 c -1 0 -3 -2 -3 -3 m 0 -5" fill="#f9f9f9"/></g></g></g></g><g><g transform="translate(0,-1004.3622)"><path d="m 1 1043.36 0 4 c 0 2.216 1.784 4 4 4 l 38 0 c 2.216 0 4 -1.784 4 -4 l 0 -4 c 0 2.216 -1.784 4 -4 4 l -38 0 c -2.216 0 -4 -1.784 -4 -4 z" opacity="0.1"/></g></g></svg>

<svg viewBox="0 0 48 48" xmlns:xlink="http://www.w3.org/1999/xlink">
 <defs>
  <linearGradient id="0">
   <stop stop-opacity="0"/>
   <stop offset="1"/>
  </linearGradient>
  <linearGradient xlink:href="#0" id="1" gradientUnits="userSpaceOnUse" gradientTransform="translate(4e-7,-48)" y1="47" x2="0" y2="1"/>
  <clipPath id="2">
   <g transform="translate(0,-1004.3622)">
    <rect rx="4" y="1005.36" x="1" height="46" width="46" fill="#1890d0"/>
   </g>
  </clipPath>
  <clipPath id="3">
   <g transform="translate(0,-1004.3622)">
    <rect rx="4" y="1005.36" x="1" height="46" width="46" fill="#1890d0"/>
   </g>
  </clipPath>
 </defs>
 <g>
  <g transform="translate(0,-1004.3622)">
   <path d="m 5,1006.3622 c -2.216,0 -4,1.784 -4,4 l 0,37.25 c 0,2.216 1.784,4 4,4 l 38,0 c 2.216,0 4,-1.784 4,-4 l 0,-37.25 c 0,-2.216 -1.784,-4 -4,-4 l -38,0 z m -4,41.5 0,0.5 c 0,2.216 1.784,4 4,4 l 38,0 c 2.216,0 4,-1.784 4,-4 l 0,-0.5 c 0,2.216 -1.784,4 -4,4 l -38,0 c -2.216,0 -4,-1.784 -4,-4 z" opacity="0.02"/>
   <path d="m 1,1047.6122 0,0.25 c 0,2.216 1.784,4 4,4 l 38,0 c 2.216,0 4,-1.784 4,-4 l 0,-0.25 c 0,2.216 -1.784,4 -4,4 l -38,0 c -2.216,0 -4,-1.784 -4,-4 z" opacity="0.05"/>
   <rect width="46" height="46" x="1" y="1005.61" rx="4" opacity="0.1"/>
  </g>
 </g>
 <g>
  <g transform="translate(0,-1004.3622)">
   <rect rx="4" y="1005.36" x="1" height="46" width="46" fill="#2bb9aa"/>
  </g>
 </g>
 <g>
  <rect transform="scale(1,-1)" width="46" height="46" x="1" y="-46.998" rx="4" opacity="0.1" fill="url(#1)"/>
 </g>
 <g>
  <g clip-path="url(#2)">
   <g opacity="0.1">
    <g>
     <path d="M 28 14 C 28 16.210938 26.210938 18 24 18 C 21.789062 18 20 16.210938 20 14 C 20 11.789062 21.789062 10 24 10 C 26.210938 10 28 11.789062 28 14 Z M 28 14 "/>
     <path d="M 20 30 L 28 30 C 28 36 26 38 20 38 Z M 20 30 "/>
     <path d="M 40 20 C 40 27 39 28 32 28 C 32 21 33 20 40 20 Z M 40 20 "/>
     <path d="M 8 20 L 27 20 C 28 20 30 22 30 23 L 30 28 L 11 28 C 10 28 8 26 8 25 Z M 8 20 "/>
    </g>
   </g>
  </g>
 </g>
 <g>
  <g clip-path="url(#3)">
   <g transform="translate(0,-1)">
    <g>
     <path d="M 28 14 C 28 16.210938 26.210938 18 24 18 C 21.789062 18 20 16.210938 20 14 C 20 11.789062 21.789062 10 24 10 C 26.210938 10 28 11.789062 28 14 Z M 28 14 " fill="#f9f9f9"/>
     <path d="M 20 30 L 28 30 C 28 36 26 38 20 38 Z M 20 30 " fill="#f9f9f9"/>
     <path d="M 40 20 C 40 27 39 28 32 28 C 32 21 33 20 40 20 Z M 40 20 " fill="#f9f9f9"/>
     <path d="M 8 20 L 27 20 C 28 20 30 22 30 23 L 30 28 L 11 28 C 10 28 8 26 8 25 Z M 8 20 " fill="#f9f9f9"/>
    </g>
   </g>
  </g>
 </g>
 <g>
  <g transform="translate(0,-1004.3622)">
   <path d="m 1,1043.3622 0,4 c 0,2.216 1.784,4 4,4 l 38,0 c 2.216,0 4,-1.784 4,-4 l 0,-4 c 0,2.216 -1.784,4 -4,4 l -38,0 c -2.216,0 -4,-1.784 -4,-4 z" opacity="0.1"/>
  </g>
 </g>
</svg>
